X: 21294
T: Kelsae Brig
R: reel
M: 4/4
K: Bminor
|:BdcA B3d|cAeA faec|BdcA G3B|1 Afec B3A:|2 Afec B3e||
fBBf aBBf|eAAe fAeA|fBBf aBBc|Afec B3e|
fBBf aBBf|eAAe fAeA|BdcA G3B|Afec B3A||

